svgs/thin/diagram-lean-canvas.svg

<svg xmlns="http://www.w3.org/2000/svg" viewBox="0 0 640 512"><!--! Font Awesome Pro 6.6.0 by @fontawesome - https://fontawesome.com License - https://fontawesome.com/license (Commercial License) Copyright 2024 Fonticons, Inc. --><path d="M512 48l0 288 112 0 0-240c0-26.5-21.5-48-48-48l-64 0zm-16 0L384 48l0 144 112 0 0-144zM368 48l-96 0 0 288 96 0 0-288zM256 48L144 48l0 144 112 0 0-144zM128 48L64 48C37.5 48 16 69.5 16 96l0 240 112 0 0-288zM16 352l0 64c0 26.5 21.5 48 48 48l248 0 0-112L16 352zM328 464l248 0c26.5 0 48-21.5 48-48l0-64-296 0 0 112zM0 96C0 60.7 28.7 32 64 32l512 0c35.3 0 64 28.7 64 64l0 320c0 35.3-28.7 64-64 64L64 480c-35.3 0-64-28.7-64-64L0 96zM256 336l0-128-112 0 0 128 112 0zM496 208l-112 0 0 128 112 0 0-128z"/></svg>

<svg xmlns="http://www.w3.org/2000/svg" viewBox="0 0 640 512"><!--! Font Awesome Pro 6.4.0 by @fontawesome - https://fontawesome.com License - https://fontawesome.com/license (Commercial License) Copyright 2023 Fonticons, Inc. --><path d="M512 48V336H624V96c0-26.5-21.5-48-48-48H512zm-16 0H384V192H496V48zM368 48H272V336h96V48zM256 48H144V192H256V48zM128 48H64C37.5 48 16 69.5 16 96V336H128V48zM16 352v64c0 26.5 21.5 48 48 48H312V352H16zM328 464H576c26.5 0 48-21.5 48-48V352H328V464zM0 96C0 60.7 28.7 32 64 32H576c35.3 0 64 28.7 64 64V416c0 35.3-28.7 64-64 64H64c-35.3 0-64-28.7-64-64V96zM256 336V208H144V336H256zM496 208H384V336H496V208z"/></svg>
